packages/dnb-ui-lib/assets/icons/loan.svg

<svg width="16" height="16" viewBox="0 0 16 16" fill="none" xmlns="http://www.w3.org/2000/svg">
<path d="M15.25 13H14.25M0.75 13H1.75M1.75 13V3.46667C1.75 3.20893 1.95893 3 2.21667 3H3.78333C4.04107 3 4.25 3.20893 4.25 3.46667V13M1.75 13H4.25M4.25 13H6.75M6.75 13V5.96667C6.75 5.70893 6.95893 5.5 7.21667 5.5L8.75 5.48889C9.00773 5.48889 9.21667 5.69782 9.21667 5.95556V13M6.75 13H9.21667M9.21667 13H11.75M11.75 13V8.44444C11.75 8.18671 11.9589 7.97778 12.2167 7.97778H13.7833C14.0411 7.97778 14.25 8.18671 14.25 8.44444V13M11.75 13H14.25" stroke="black" stroke-width="1.5" stroke-linecap="round" stroke-linejoin="round"/>
</svg>

<svg width="16" height="16" viewBox="0 0 16 16" fill="none" xmlns="http://www.w3.org/2000/svg"><path d="M15.25 13h-1M.75 13h1m0 0V3.467c0-.258.209-.467.467-.467h1.566c.258 0 .467.209.467.467V13m-2.5 0h2.5m0 0h2.5m0 0V5.967c0-.258.209-.467.467-.467l1.533-.011c.258 0 .467.209.467.467V13M6.75 13h2.467m0 0h2.533m0 0V8.444c0-.257.209-.466.467-.466h1.566c.258 0 .467.209.467.466V13m-2.5 0h2.5" stroke="#000" stroke-width="1.5" stroke-linecap="round" stroke-linejoin="round"/></svg>
